X:1
T:Title
%%score { 1 | ( 2 3 ) }
L:1/8
M:4/4
K:Bb
V:1 treble nm="Grand Piano"
V:2 bass 
V:3 bass 
V:1
 z4 z2[Q:1/4=100] [DF]2 | [DF]2 [DG]2 [DA]2 [DB]2 | [EB]3 [EA] [EA]2 [EF]2 | %3
 [DF]2 [DB]2 [Ge]2 [Fd]2 |[M:3/4] d4 c2 |[M:1/4] F2 |[M:4/4] [DF]2 [DG]2 [DA]2 [_DB]2 | %7
 B3 A A2 [Fc]2 | [=Ec]3 [DEB] [CEA]2 [B,EG]2 |[M:3/4] [A,CF]6 |[M:1/4] [A,EF]2 | %11
[M:4/4] [Fd]3 [=E_d] [Ge]2 [F=d]2 | [Gc]2 G2 G2 B2 | B2 A2 G2 F2 |[M:3/4] [Fd]6 |[M:1/4] [DF]2 | %16
[M:4/4] [Fd]3 [Fd] [Fe]2 [Fd]2 |[M:9/8] [=Ec]2 [EG]- [EG] [Ec]2- [Ec] B2 |[M:4/4] F2 d2 c3 [DB] | %19
[M:3/4] [DB]6 |] %20
V:2
 z4 z2 [B,,B,]2 | [B,,B,]2 [B,,B,]2 [B,,F,]2 [B,,F,]2 | [C,F,]3 [C,F,] [C,F,]2 [F,A,]2 | %3
 [B,,B,]2 [B,,F,]2 [B,,B,]2 [B,,B,]2 |[M:3/4] [F,F]6 |[M:1/4] [F,A,E]2 | %6
[M:4/4] [B,,B,]2 [B,,B,]2 [B,,F,]2 [B,,F,]2 | [C,F,C]3 [C,F,C] [C,F,C]2 [C,A,]2 | %8
 [C,G,]3 C, C,2 C,2 |[M:3/4] F,6 |[M:1/4] F,2 |[M:4/4] [B,,B,]3 [B,,B,] [B,,B,]2 [B,,B,]2 | %12
 [E,B,]2 [E,B,E]2 [E,CE]2 [^F,CE]2 | [F,CE]2 [F,CE]2 [F,B,E]2 [F,A,E]2 |[M:3/4] [B,,B,]6 | %15
[M:1/4] [B,,B,]2 |[M:4/4] [B,,B,]3 [B,,B,] [G,=B,]2 [G,B,]2 | %17
[M:9/8] [C,C]2 [C,C]- [C,C] [C,G,]2- [C,G,] [E,G,_D]2 |[M:4/4] [F,B,D]2 [F,B,F]2 [F,A,E]3 [B,,B,] | %19
[M:3/4] [B,,B,]6 |] %20
V:3
 x8 | x8 | x8 | x8 |[M:3/4] B,4 A,2 |[M:1/4] x2 |[M:4/4] x8 | x8 | x8 |[M:3/4] x6 |[M:1/4] x2 | %11
[M:4/4] x8 | x8 | x8 |[M:3/4] x6 |[M:1/4] x2 |[M:4/4] x8 |[M:9/8] x9 |[M:4/4] x8 |[M:3/4] x6 |] %20

